X:1
T: Kiss Me Quick, My Mither's Coming
C:
R:Reel
Q: 232
K:D
M:4/4
L:1/8
|:Bc|d4 A4|F2 D2 FG AF|E2 =c2 E2 =c2|E2 =C2 EF GE|
d4 A4|F3E D2 F2|GF ED =C2 E2|D4 D2:|
|:ag|f3e d2 a2|f2 d2 fg af|e3d =c2 g2|e2 =c2 ef ge|
f2 d2 g2 e2|a2 f2 g2 e2|gf ed ^c2 e2|d4 d2:|
